public/sample-luts/bleach-bypass-17.cube
TITLE "Bleach Bypass"
# High contrast desaturated look
LUT_3D_SIZE 17
DOMAIN_MIN 0.0 0.0 0.0
DOMAIN_MAX 1.0 1.0 1.0
0.0000000000 0.0000000000 0.0000000000
0.0000000000 0.0000000000 0.0000000000
0.0000000000 0.0000000000 0.0000000000
0.0000000000 0.0000000000 0.0000000000
0.0000000000 0.0000000000 0.0000000000
0.0000000000 0.0000000000 0.0000000000
0.0409140000 0.0000000000 0.0000000000
0.0897330000 0.0000000000 0.0000000000
0.1385520000 0.0000000000 0.0000000000
0.1873710000 0.0000000000 0.0000000000
0.2361900000 0.0000000000 0.0000000000
0.2850090000 0.0000000000 0.0000000000
0.3338280000 0.0000000000 0.0000000000
0.3826470000 0.0000000000 0.0000000000
0.4314660000 0.0000000000 0.0000000000
0.4802850000 0.0000000000 0.0000000000
0.5291040000 0.0000000000 0.0000000000
0.0000000000 0.0000000000 0.0000000000
0.0000000000 0.0000000000 0.0000000000
0.0000000000 0.0000000000 0.0000000000
0.0000000000 0.0000000000 0.0000000000
0.0000000000 0.0000000000 0.0000000000
0.0385830000 0.0000000000 0.0000000000
0.0874020000 0.0000000000 0.0000000000
0.1362210000 0.0000000000 0.0000000000
0.1850400000 0.0000000000 0.0000000000
0.2338590000 0.0000000000 0.0000000000
0.2826780000 0.0000000000 0.0000000000
0.3314970000 0.0000000000 0.0000000000
0.3803160000 0.0000000000 0.0000000000
0.4291350000 0.0091350000 0.0000000000
0.4779540000 0.0229540000 0.0000000000
0.5267730000 0.0367730000 0.0017730000
0.5755920000 0.0505920000 0.0155920000
0.0000000000 0.0000000000 0.0000000000
0.0000000000 0.0000000000 0.0000000000
0.0000000000 0.0000000000 0.0000000000
0.0000000000 0.0000000000 0.0000000000
0.0362520000 0.0000000000 0.0000000000
0.0850710000 0.0000000000 0.0000000000
0.1338900000 0.0000000000 0.0000000000
0.1827090000 0.0077090000 0.0000000000
0.2315280000 0.0215280000 0.0000000000
0.2803470000 0.0353470000 0.0000000000
0.3291660000 0.0491660000 0.0000000000
0.3779850000 0.0629850000 0.0000000000
0.4268040000 0.0768040000 0.0068040000
0.4756230000 0.0906230000 0.0206230000
0.5244420000 0.1044420000 0.0344420000
0.5732610000 0.1182610000 0.0482610000
0.6220800000 0.1320800000 0.0620800000
0.0000000000 0.0000000000 0.0000000000
0.0000000000 0.0062830000 0.0000000000
0.0000000000 0.0201020000 0.0000000000
0.0339210000 0.0339210000 0.0000000000
0.0827400000 0.0477400000 0.0000000000
0.1315590000 0.0615590000 0.0000000000
0.1803780000 0.0753780000 0.0000000000
0.2291970000 0.0891970000 0.0000000000
0.2780160000 0.1030160000 0.0000000000
0.3268350000 0.1168350000 0.0118350000
0.3756540000 0.1306540000 0.0256540000
0.4244730000 0.1444730000 0.0394730000
0.4732920000 0.1582920000 0.0532920000
0.5221110000 0.1721110000 0.0671110000
0.5709300000 0.1859300000 0.0809300000
0.6197490000 0.1997490000 0.0947490000
0.6685680000 0.2135680000 0.1085680000
0.0000000000 0.0739520000 0.0000000000
0.0000000000 0.0877710000 0.0000000000
0.0315900000 0.1015900000 0.0000000000
0.0804090000 0.1154090000 0.0000000000
0.1292280000 0.1292280000 0.0000000000
0.1780470000 0.1430470000 0.0030470000
0.2268660000 0.1568660000 0.0168660000
0.2756850000 0.1706850000 0.0306850000
0.3245040000 0.1845040000 0.0445040000
0.3733230000 0.1983230000 0.0583230000
0.4221420000 0.2121420000 0.0721420000
0.4709610000 0.2259610000 0.0859610000
0.5197800000 0.2397800000 0.0997800000
0.5685990000 0.2535990000 0.1135990000
0.6174180000 0.2674180000 0.1274180000
0.6662370000 0.2812370000 0.1412370000
0.7150560000 0.2950560000 0.1550560000
0.0000000000 0.1554400000 0.0000000000
0.0292590000 0.1692590000 0.0000000000
0.0780780000 0.1830780000 0.0080780000
0.1268970000 0.1968970000 0.0218970000
0.1757160000 0.2107160000 0.0357160000
0.2245350000 0.2245350000 0.0495350000
0.2733540000 0.2383540000 0.0633540000
0.3221730000 0.2521730000 0.0771730000
0.3709920000 0.2659920000 0.0909920000
0.4198110000 0.2798110000 0.1048110000
0.4686300000 0.2936300000 0.1186300000
0.5174490000 0.3074490000 0.1324490000
0.5662680000 0.3212680000 0.1462680000
0.6150870000 0.3350870000 0.1600870000
0.6639060000 0.3489060000 0.1739060000
0.7127250000 0.3627250000 0.1877250000
0.7615440000 0.3765440000 0.2015440000
0.0269280000 0.2369280000 0.0269280000
0.0757470000 0.2507470000 0.0407470000
0.1245660000 0.2645660000 0.0545660000
0.1733850000 0.2783850000 0.0683850000
0.2222040000 0.2922040000 0.0822040000
0.2710230000 0.3060230000 0.0960230000
0.3198420000 0.3198420000 0.1098420000
0.3686610000 0.3336610000 0.1236610000
0.4174800000 0.3474800000 0.1374800000
0.4662990000 0.3612990000 0.1512990000
0.5151180000 0.3751180000 0.1651180000
0.5639370000 0.3889370000 0.1789370000
0.6127560000 0.4027560000 0.1927560000
0.6615750000 0.4165750000 0.2065750000
0.7103940000 0.4303940000 0.2203940000
0.7592130000 0.4442130000 0.2342130000
0.8080320000 0.4580320000 0.2480320000
0.0734160000 0.3184160000 0.0734160000
0.1222350000 0.3322350000 0.0872350000
0.1710540000 0.3460540000 0.1010540000
0.2198730000 0.3598730000 0.1148730000
0.2686920000 0.3736920000 0.1286920000
0.3175110000 0.3875110000 0.1425110000
0.3663300000 0.4013300000 0.1563300000
0.4151490000 0.4151490000 0.1701490000
0.4639680000 0.4289680000 0.1839680000
0.5127870000 0.4427870000 0.1977870000
0.5616060000 0.4566060000 0.2116060000
0.6104250000 0.4704250000 0.2254250000
0.6592440000 0.4842440000 0.2392440000
0.7080630000 0.4980630000 0.2530630000
0.7568820000 0.5118820000 0.2668820000
0.8057010000 0.5257010000 0.2807010000
0.8545200000 0.5395200000 0.2945200000
0.1199040000 0.3999040000 0.1199040000
0.1687230000 0.4137230000 0.1337230000
0.2175420000 0.4275420000 0.1475420000
0.2663610000 0.4413610000 0.1613610000
0.3151800000 0.4551800000 0.1751800000
0.3639990000 0.4689990000 0.1889990000
0.4128180000 0.4828180000 0.2028180000
0.4616370000 0.4966370000 0.2166370000
0.5104560000 0.5104560000 0.2304560000
0.5592750000 0.5242750000 0.2442750000
0.6080940000 0.5380940000 0.2580940000
0.6569130000 0.5519130000 0.2719130000
0.7057320000 0.5657320000 0.2857320000
0.7545510000 0.5795510000 0.2995510000
0.8033700000 0.5933700000 0.3133700000
0.8521890000 0.6071890000 0.3271890000
0.9010080000 0.6210080000 0.3410080000
0.1663920000 0.4813920000 0.1663920000
0.2152110000 0.4952110000 0.1802110000
0.2640300000 0.5090300000 0.1940300000
0.3128490000 0.5228490000 0.2078490000
0.3616680000 0.5366680000 0.2216680000
0.4104870000 0.5504870000 0.2354870000
0.4593060000 0.5643060000 0.2493060000
0.5081250000 0.5781250000 0.2631250000
0.5569440000 0.5919440000 0.2769440000
0.6057630000 0.6057630000 0.2907630000
0.6545820000 0.6195820000 0.3045820000
0.7034010000 0.6334010000 0.3184010000
0.7522200000 0.6472200000 0.3322200000
0.8010390000 0.6610390000 0.3460390000
0.8498580000 0.6748580000 0.3598580000
0.8986770000 0.6886770000 0.3736770000
0.9474960000 0.7024960000 0.3874960000
0.2128800000 0.5628800000 0.2128800000
0.2616990000 0.5766990000 0.2266990000
0.3105180000 0.5905180000 0.2405180000
0.3593370000 0.6043370000 0.2543370000
0.4081560000 0.6181560000 0.2681560000
0.4569750000 0.6319750000 0.2819750000
0.5057940000 0.6457940000 0.2957940000
0.5546130000 0.6596130000 0.3096130000
0.6034320000 0.6734320000 0.3234320000
0.6522510000 0.6872510000 0.3372510000
0.7010700000 0.7010700000 0.3510700000
0.7498890000 0.7148890000 0.3648890000
0.7987080000 0.7287080000 0.3787080000
0.8475270000 0.7425270000 0.3925270000
0.8963460000 0.7563460000 0.4063460000
0.9451650000 0.7701650000 0.4201650000
0.9939840000 0.7839840000 0.4339840000
0.2593680000 0.6443680000 0.2593680000
0.3081870000 0.6581870000 0.2731870000
0.3570060000 0.6720060000 0.2870060000
0.4058250000 0.6858250000 0.3008250000
0.4546440000 0.6996440000 0.3146440000
0.5034630000 0.7134630000 0.3284630000
0.5522820000 0.7272820000 0.3422820000
0.6011010000 0.7411010000 0.3561010000
0.6499200000 0.7549200000 0.3699200000
0.6987390000 0.7687390000 0.3837390000
0.7475580000 0.7825580000 0.3975580000
0.7963770000 0.7963770000 0.4113770000
0.8451960000 0.8101960000 0.4251960000
0.8940150000 0.8240150000 0.4390150000
0.9428340000 0.8378340000 0.4528340000
0.9916530000 0.8516530000 0.4666530000
1.0000000000 0.8654720000 0.4804720000
0.3058560000 0.7258560000 0.3058560000
0.3546750000 0.7396750000 0.3196750000
0.4034940000 0.7534940000 0.3334940000
0.4523130000 0.7673130000 0.3473130000
0.5011320000 0.7811320000 0.3611320000
0.5499510000 0.7949510000 0.3749510000
0.5987700000 0.8087700000 0.3887700000
0.6475890000 0.8225890000 0.4025890000
0.6964080000 0.8364080000 0.4164080000
0.7452270000 0.8502270000 0.4302270000
0.7940460000 0.8640460000 0.4440460000
0.8428650000 0.8778650000 0.4578650000
0.8916840000 0.8916840000 0.4716840000
0.9405030000 0.9055030000 0.4855030000
0.9893220000 0.9193220000 0.4993220000
1.0000000000 0.9331410000 0.5131410000
1.0000000000 0.9469600000 0.5269600000
0.3523440000 0.8073440000 0.3523440000
0.4011630000 0.8211630000 0.3661630000
0.4499820000 0.8349820000 0.3799820000
0.4988010000 0.8488010000 0.3938010000
0.5476200000 0.8626200000 0.4076200000
0.5964390000 0.8764390000 0.4214390000
0.6452580000 0.8902580000 0.4352580000
0.6940770000 0.9040770000 0.4490770000
0.7428960000 0.9178960000 0.4628960000
0.7917150000 0.9317150000 0.4767150000
0.8405340000 0.9455340000 0.4905340000
0.8893530000 0.9593530000 0.5043530000
0.9381720000 0.9731720000 0.5181720000
0.9869910000 0.9869910000 0.5319910000
1.0000000000 1.0000000000 0.5458100000
1.0000000000 1.0000000000 0.5596290000
1.0000000000 1.0000000000 0.5734480000
0.3988320000 0.8888320000 0.3988320000
0.4476510000 0.9026510000 0.4126510000
0.4964700000 0.9164700000 0.4264700000
0.5452890000 0.9302890000 0.4402890000
0.5941080000 0.9441080000 0.4541080000
0.6429270000 0.9579270000 0.4679270000
0.6917460000 0.9717460000 0.4817460000
0.7405650000 0.9855650000 0.4955650000
0.7893840000 0.9993840000 0.5093840000
0.8382030000 1.0000000000 0.5232030000
0.8870220000 1.0000000000 0.5370220000
0.9358410000 1.0000000000 0.5508410000
0.9846600000 1.0000000000 0.5646600000
1.0000000000 1.0000000000 0.5784790000
1.0000000000 1.0000000000 0.5922980000
1.0000000000 1.0000000000 0.6061170000
1.0000000000 1.0000000000 0.6199360000
0.4453200000 0.9703200000 0.4453200000
0.4941390000 0.9841390000 0.4591390000
0.5429580000 0.9979580000 0.4729580000
0.5917770000 1.0000000000 0.4867770000
0.6405960000 1.0000000000 0.5005960000
0.6894150000 1.0000000000 0.5144150000
0.7382340000 1.0000000000 0.5282340000
0.7870530000 1.0000000000 0.5420530000
0.8358720000 1.0000000000 0.5558720000
0.8846910000 1.0000000000 0.5696910000
0.9335100000 1.0000000000 0.5835100000
0.9823290000 1.0000000000 0.5973290000
1.0000000000 1.0000000000 0.6111480000
1.0000000000 1.0000000000 0.6249670000
1.0000000000 1.0000000000 0.6387860000
1.0000000000 1.0000000000 0.6526050000
1.0000000000 1.0000000000 0.6664240000
0.4918080000 1.0000000000 0.4918080000
0.5406270000 1.0000000000 0.5056270000
0.5894460000 1.0000000000 0.5194460000
0.6382650000 1.0000000000 0.5332650000
0.6870840000 1.0000000000 0.5470840000
0.7359030000 1.0000000000 0.5609030000
0.7847220000 1.0000000000 0.5747220000
0.8335410000 1.0000000000 0.5885410000
0.8823600000 1.0000000000 0.6023600000
0.9311790000 1.0000000000 0.6161790000
0.9799980000 1.0000000000 0.6299980000
1.0000000000 1.0000000000 0.6438170000
1.0000000000 1.0000000000 0.6576360000
1.0000000000 1.0000000000 0.6714550000
1.0000000000 1.0000000000 0.6852740000
1.0000000000 1.0000000000 0.6990930000
1.0000000000 1.0000000000 0.7129120000
0.0000000000 0.0000000000 0.0000000000
0.0000000000 0.0000000000 0.0000000000
0.0000000000 0.0000000000 0.0000000000
0.0000000000 0.0000000000 0.0000000000
0.0000000000 0.0000000000 0.0000000000
0.0000000000 0.0000000000 0.0000000000
0.0456070000 0.0000000000 0.0000000000
0.0944260000 0.0000000000 0.0000000000
0.1432450000 0.0000000000 0.0000000000
0.1920640000 0.0000000000 0.0000000000
0.2408830000 0.0000000000 0.0000000000
0.2897020000 0.0000000000 0.0000000000
0.3385210000 0.0000000000 0.0000000000
0.3873400000 0.0000000000 0.0000000000
0.4361590000 0.0000000000 0.0000000000
0.4849780000 0.0000000000 0.0000000000
0.5337970000 0.0000000000 0.0087970000
0.0000000000 0.0000000000 0.0000000000
0.0000000000 0.0000000000 0.0000000000
0.0000000000 0.0000000000 0.0000000000
0.0000000000 0.0000000000 0.0000000000
0.0000000000 0.0000000000 0.0000000000
0.0432760000 0.0000000000 0.0000000000
0.0920950000 0.0000000000 0.0000000000
0.1409140000 0.0000000000 0.0000000000
0.1897330000 0.0000000000 0.0000000000
0.2385520000 0.0000000000 0.0000000000
0.2873710000 0.0000000000 0.0000000000
0.3361900000 0.0000000000 0.0000000000
0.3850090000 0.0000090000 0.0000090000
0.4338280000 0.0138280000 0.0138280000
0.4826470000 0.0276470000 0.0276470000
0.5314660000 0.0414660000 0.0414660000
0.5802850000 0.0552850000 0.0552850000
0.0000000000 0.0000000000 0.0000000000
0.0000000000 0.0000000000 0.0000000000
0.0000000000 0.0000000000 0.0000000000
0.0000000000 0.0000000000 0.0000000000
0.0409450000 0.0000000000 0.0000000000
0.0897640000 0.0000000000 0.0000000000
0.1385830000 0.0000000000 0.0000000000
0.1874020000 0.0124020000 0.0000000000
0.2362210000 0.0262210000 0.0000000000
0.2850400000 0.0400400000 0.0050400000
0.3338590000 0.0538590000 0.0188590000
0.3826780000 0.0676780000 0.0326780000
0.4314970000 0.0814970000 0.0464970000
0.4803160000 0.0953160000 0.0603160000
0.5291350000 0.1091350000 0.0741350000
0.5779540000 0.1229540000 0.0879540000
0.6267730000 0.1367730000 0.1017730000
0.0000000000 0.0000000000 0.0000000000
0.0000000000 0.0109760000 0.0000000000
0.0000000000 0.0247950000 0.0000000000
0.0386140000 0.0386140000 0.0000000000
0.0874330000 0.0524330000 0.0000000000
0.1362520000 0.0662520000 0.0000000000
0.1850710000 0.0800710000 0.0100710000
0.2338900000 0.0938900000 0.0238900000
0.2827090000 0.1077090000 0.0377090000
0.3315280000 0.1215280000 0.0515280000
0.3803470000 0.1353470000 0.0653470000
0.4291660000 0.1491660000 0.0791660000
0.4779850000 0.1629850000 0.0929850000
0.5268040000 0.1768040000 0.1068040000
0.5756230000 0.1906230000 0.1206230000
0.6244420000 0.2044420000 0.1344420000
0.6732610000 0.2182610000 0.1482610000
0.0000000000 0.0786450000 0.0000000000
0.0000000000 0.0924640000 0.0000000000
0.0362830000 0.1062830000 0.0012830000
0.0851020000 0.1201020000 0.0151020000
0.1339210000 0.1339210000 0.0289210000
0.1827400000 0.1477400000 0.0427400000
0.2315590000 0.1615590000 0.0565590000
0.2803780000 0.1753780000 0.0703780000
0.3291970000 0.1891970000 0.0841970000
0.3780160000 0.2030160000 0.0980160000
0.4268350000 0.2168350000 0.1118350000
0.4756540000 0.2306540000 0.1256540000
0.5244730000 0.2444730000 0.1394730000
0.5732920000 0.2582920000 0.1532920000
0.6221110000 0.2721110000 0.1671110000
0.6709300000 0.2859300000 0.1809300000
0.7197490000 0.2997490000 0.1947490000
0.0000000000 0.1601330000 0.0201330000
0.0339520000 0.1739520000 0.0339520000
0.0827710000 0.1877710000 0.0477710000
0.1315900000 0.2015900000 0.0615900000
0.1804090000 0.2154090000 0.0754090000
0.2292280000 0.2292280000 0.0892280000
0.2780470000 0.2430470000 0.1030470000
0.3268660000 0.2568660000 0.1168660000
0.3756850000 0.2706850000 0.1306850000
0.4245040000 0.2845040000 0.1445040000
0.4733230000 0.2983230000 0.1583230000
0.5221420000 0.3121420000 0.1721420000
0.5709610000 0.3259610000 0.1859610000
0.6197800000 0.3397800000 0.1997800000
0.6685990000 0.3535990000 0.2135990000
0.7174180000 0.3674180000 0.2274180000
0.7662370000 0.3812370000 0.2412370000
0.0316210000 0.2416210000 0.0666210000
0.0804400000 0.2554400000 0.0804400000
0.1292590000 0.2692590000 0.0942590000
0.1780780000 0.2830780000 0.1080780000
0.2268970000 0.2968970000 0.1218970000
0.2757160000 0.3107160000 0.1357160000
0.3245350000 0.3245350000 0.1495350000
0.3733540000 0.3383540000 0.1633540000
0.4221730000 0.3521730000 0.1771730000
0.4709920000 0.3659920000 0.1909920000
0.5198110000 0.3798110000 0.2048110000
0.5686300000 0.3936300000 0.2186300000
0.6174490000 0.4074490000 0.2324490000
0.6662680000 0.4212680000 0.2462680000
0.7150870000 0.4350870000 0.2600870000
0.7639060000 0.4489060000 0.2739060000
0.8127250000 0.4627250000 0.2877250000
0.0781090000 0.3231090000 0.1131090000
0.1269280000 0.3369280000 0.1269280000
0.1757470000 0.3507470000 0.1407470000
0.2245660000 0.3645660000 0.1545660000
0.2733850000 0.3783850000 0.1683850000
0.3222040000 0.3922040000 0.1822040000
0.3710230000 0.4060230000 0.1960230000
0.4198420000 0.4198420000 0.2098420000
0.4686610000 0.4336610000 0.2236610000
0.5174800000 0.4474800000 0.2374800000
0.5662990000 0.4612990000 0.2512990000
0.6151180000 0.4751180000 0.2651180000
0.6639370000 0.4889370000 0.2789370000
0.7127560000 0.5027560000 0.2927560000
0.7615750000 0.5165750000 0.3065750000
0.8103940000 0.5303940000 0.3203940000
0.8592130000 0.5442130000 0.3342130000
0.1245970000 0.4045970000 0.1595970000
0.1734160000 0.4184160000 0.1734160000
0.2222350000 0.4322350000 0.1872350000
0.2710540000 0.4460540000 0.2010540000
0.3198730000 0.4598730000 0.2148730000
0.3686920000 0.4736920000 0.2286920000
0.4175110000 0.4875110000 0.2425110000
0.4663300000 0.5013300000 0.2563300000
0.5151490000 0.5151490000 0.2701490000
0.5639680000 0.5289680000 0.2839680000
0.6127870000 0.5427870000 0.2977870000
0.6616060000 0.5566060000 0.3116060000
0.7104250000 0.5704250000 0.3254250000
0.7592440000 0.5842440000 0.3392440000
0.8080630000 0.5980630000 0.3530630000
0.8568820000 0.6118820000 0.3668820000
0.9057010000 0.6257010000 0.3807010000
0.1710850000 0.4860850000 0.2060850000
0.2199040000 0.4999040000 0.2199040000
0.2687230000 0.5137230000 0.2337230000
0.3175420000 0.5275420000 0.2475420000
0.3663610000 0.5413610000 0.2613610000
0.4151800000 0.5551800000 0.2751800000
0.4639990000 0.5689990000 0.2889990000
0.5128180000 0.5828180000 0.3028180000
0.5616370000 0.5966370000 0.3166370000
0.6104560000 0.6104560000 0.3304560000
0.6592750000 0.6242750000 0.3442750000
0.7080940000 0.6380940000 0.3580940000
0.7569130000 0.6519130000 0.3719130000
0.8057320000 0.6657320000 0.3857320000
0.8545510000 0.6795510000 0.3995510000
0.9033700000 0.6933700000 0.4133700000
0.9521890000 0.7071890000 0.4271890000
0.2175730000 0.5675730000 0.2525730000
0.2663920000 0.5813920000 0.2663920000
0.3152110000 0.5952110000 0.2802110000
0.3640300000 0.6090300000 0.2940300000
0.4128490000 0.6228490000 0.3078490000
0.4616680000 0.6366680000 0.3216680000
0.5104870000 0.6504870000 0.3354870000
0.5593060000 0.6643060000 0.3493060000
0.6081250000 0.6781250000 0.3631250000
0.6569440000 0.6919440000 0.3769440000
0.7057630000 0.7057630000 0.3907630000
0.7545820000 0.7195820000 0.4045820000
0.8034010000 0.7334010000 0.4184010000
0.8522200000 0.7472200000 0.4322200000
0.9010390000 0.7610390000 0.4460390000
0.9498580000 0.7748580000 0.4598580000
0.9986770000 0.7886770000 0.4736770000
0.2640610000 0.6490610000 0.2990610000
0.3128800000 0.6628800000 0.3128800000
0.3616990000 0.6766990000 0.3266990000
0.4105180000 0.6905180000 0.3405180000
0.4593370000 0.7043370000 0.3543370000
0.5081560000 0.7181560000 0.3681560000
0.5569750000 0.7319750000 0.3819750000
0.6057940000 0.7457940000 0.3957940000
0.6546130000 0.7596130000 0.4096130000
0.7034320000 0.7734320000 0.4234320000
0.7522510000 0.7872510000 0.4372510000
0.8010700000 0.8010700000 0.4510700000
0.8498890000 0.8148890000 0.4648890000
0.8987080000 0.8287080000 0.4787080000
0.9475270000 0.8425270000 0.4925270000
0.9963460000 0.8563460000 0.5063460000
1.0000000000 0.8701650000 0.5201650000
0.3105490000 0.7305490000 0.3455490000
0.3593680000 0.7443680000 0.3593680000
0.4081870000 0.7581870000 0.3731870000
0.4570060000 0.7720060000 0.3870060000
0.5058250000 0.7858250000 0.4008250000
0.5546440000 0.7996440000 0.4146440000
0.6034630000 0.8134630000 0.4284630000
0.6522820000 0.8272820000 0.4422820000
0.7011010000 0.8411010000 0.4561010000
0.7499200000 0.8549200000 0.4699200000
0.7987390000 0.8687390000 0.4837390000
0.8475580000 0.8825580000 0.4975580000
0.8963770000 0.8963770000 0.5113770000
0.9451960000 0.9101960000 0.5251960000
0.9940150000 0.9240150000 0.5390150000
1.0000000000 0.9378340000 0.5528340000
1.0000000000 0.9516530000 0.5666530000
0.3570370000 0.8120370000 0.3920370000
0.4058560000 0.8258560000 0.4058560000
0.4546750000 0.8396750000 0.4196750000
0.5034940000 0.8534940000 0.4334940000
0.5523130000 0.8673130000 0.4473130000
0.6011320000 0.8811320000 0.4611320000
0.6499510000 0.8949510000 0.4749510000
0.6987700000 0.9087700000 0.4887700000
0.7475890000 0.9225890000 0.5025890000
0.7964080000 0.9364080000 0.5164080000
0.8452270000 0.9502270000 0.5302270000
0.8940460000 0.9640460000 0.5440460000
0.9428650000 0.9778650000 0.5578650000
0.9916840000 0.9916840000 0.5716840000
1.0000000000 1.0000000000 0.5855030000
1.0000000000 1.0000000000 0.5993220000
1.0000000000 1.0000000000 0.6131410000
0.4035250000 0.8935250000 0.4385250000
0.4523440000 0.9073440000 0.4523440000
0.5011630000 0.9211630000 0.4661630000
0.5499820000 0.9349820000 0.4799820000
0.5988010000 0.9488010000 0.4938010000
0.6476200000 0.9626200000 0.5076200000
0.6964390000 0.9764390000 0.5214390000
0.7452580000 0.9902580000 0.5352580000
0.7940770000 1.0000000000 0.5490770000
0.8428960000 1.0000000000 0.5628960000
0.8917150000 1.0000000000 0.5767150000
0.9405340000 1.0000000000 0.5905340000
0.9893530000 1.0000000000 0.6043530000
1.0000000000 1.0000000000 0.6181720000
1.0000000000 1.0000000000 0.6319910000
1.0000000000 1.0000000000 0.6458100000
1.0000000000 1.0000000000 0.6596290000
0.4500130000 0.9750130000 0.4850130000
0.4988320000 0.9888320000 0.4988320000
0.5476510000 1.0000000000 0.5126510000
0.5964700000 1.0000000000 0.5264700000
0.6452890000 1.0000000000 0.5402890000
0.6941080000 1.0000000000 0.5541080000
0.7429270000 1.0000000000 0.5679270000
0.7917460000 1.0000000000 0.5817460000
0.8405650000 1.0000000000 0.5955650000
0.8893840000 1.0000000000 0.6093840000
0.9382030000 1.0000000000 0.6232030000
0.9870220000 1.0000000000 0.6370220000
1.0000000000 1.0000000000 0.6508410000
1.0000000000 1.0000000000 0.6646600000
1.0000000000 1.0000000000 0.6784790000
1.0000000000 1.0000000000 0.6922980000
1.0000000000 1.0000000000 0.7061170000
0.4965010000 1.0000000000 0.5315010000
0.5453200000 1.0000000000 0.5453200000
0.5941390000 1.0000000000 0.5591390000
0.6429580000 1.0000000000 0.5729580000
0.6917770000 1.0000000000 0.5867770000
0.7405960000 1.0000000000 0.6005960000
0.7894150000 1.0000000000 0.6144150000
0.8382340000 1.0000000000 0.6282340000
0.8870530000 1.0000000000 0.6420530000
0.9358720000 1.0000000000 0.6558720000
0.9846910000 1.0000000000 0.6696910000
1.0000000000 1.0000000000 0.6835100000
1.0000000000 1.0000000000 0.6973290000
1.0000000000 1.0000000000 0.7111480000
1.0000000000 1.0000000000 0.7249670000
1.0000000000 1.0000000000 0.7387860000
1.0000000000 1.0000000000 0.7526050000
0.0000000000 0.0000000000 0.0000000000
0.0000000000 0.0000000000 0.0000000000
0.0000000000 0.0000000000 0.0000000000
0.0000000000 0.0000000000 0.0000000000
0.0000000000 0.0000000000 0.0000000000
0.0014810000 0.0000000000 0.0000000000
0.0503000000 0.0000000000 0.0000000000
0.0991190000 0.0000000000 0.0000000000
0.1479380000 0.0000000000 0.0000000000
0.1967570000 0.0000000000 0.0000000000
0.2455760000 0.0000000000 0.0000000000
0.2943950000 0.0000000000 0.0000000000
0.3432140000 0.0000000000 0.0000000000
0.3920330000 0.0000000000 0.0070330000
0.4408520000 0.0000000000 0.0208520000
0.4896710000 0.0000000000 0.0346710000
0.5384900000 0.0000000000 0.0484900000
0.0000000000 0.0000000000 0.0000000000
0.0000000000 0.0000000000 0.0000000000
0.0000000000 0.0000000000 0.0000000000
0.0000000000 0.0000000000 0.0000000000
0.0000000000 0.0000000000 0.0000000000
0.0479690000 0.0000000000 0.0000000000
0.0967880000 0.0000000000 0.0000000000
0.1456070000 0.0000000000 0.0000000000
0.1944260000 0.0000000000 0.0000000000
0.2432450000 0.0000000000 0.0000000000
0.2920640000 0.0000000000 0.0120640000
0.3408830000 0.0000000000 0.0258830000
0.3897020000 0.0047020000 0.0397020000
0.4385210000 0.0185210000 0.0535210000
0.4873400000 0.0323400000 0.0673400000
0.5361590000 0.0461590000 0.0811590000
0.5849780000 0.0599780000 0.0949780000
