public/sample-luts/bleach-bypass-17.cube
TITLE "Bleach Bypass"
# High contrast desaturated look
LUT_3D_SIZE 5
DOMAIN_MIN 0.0 0.0 0.0
DOMAIN_MAX 1.0 1.0 1.0
0.0000000000 0.0000000000 0.0000000000
0.0000000000 0.0000000000 0.0000000000
0.1385520000 0.0000000000 0.0000000000
0.3338280000 0.0000000000 0.0000000000
0.5291040000 0.0000000000 0.0000000000
0.0000000000 0.0739520000 0.0000000000
0.1292280000 0.1292280000 0.0000000000
0.3245040000 0.1845040000 0.0445040000
0.5197800000 0.2397800000 0.0997800000
0.7150560000 0.2950560000 0.1550560000
0.1199040000 0.3999040000 0.1199040000
0.3151800000 0.4551800000 0.1751800000
0.5104560000 0.5104560000 0.2304560000
0.7057320000 0.5657320000 0.2857320000
0.9010080000 0.6210080000 0.3410080000
0.3058560000 0.7258560000 0.3058560000
0.5011320000 0.7811320000 0.3611320000
0.6964080000 0.8364080000 0.4164080000
0.8916840000 0.8916840000 0.4716840000
1.0000000000 0.9469600000 0.5269600000
0.4918080000 1.0000000000 0.4918080000
0.6870840000 1.0000000000 0.5470840000
0.8823600000 1.0000000000 0.6023600000
1.0000000000 1.0000000000 0.6576360000
1.0000000000 1.0000000000 0.7129120000
0.0000000000 0.0000000000 0.0000000000
0.0000000000 0.0000000000 0.0000000000
0.1573240000 0.0000000000 0.0173240000
0.3526000000 0.0000000000 0.0726000000
0.5478760000 0.0000000000 0.1278760000
0.0000000000 0.0927240000 0.0927240000
0.1480000000 0.1480000000 0.1480000000
0.3432760000 0.2032760000 0.2032760000
0.5385520000 0.2585520000 0.2585520000
0.7338280000 0.3138280000 0.3138280000
0.1386760000 0.4186760000 0.2786760000
0.3339520000 0.4739520000 0.3339520000
0.5292280000 0.5292280000 0.3892280000
0.7245040000 0.5845040000 0.4445040000
0.9197800000 0.6397800000 0.4997800000
0.3246280000 0.7446280000 0.4646280000
0.5199040000 0.7999040000 0.5199040000
0.7151800000 0.8551800000 0.5751800000
0.9104560000 0.9104560000 0.6304560000
1.0000000000 0.9657320000 0.6857320000
0.5105800000 1.0000000000 0.6505800000
0.7058560000 1.0000000000 0.7058560000
0.9011320000 1.0000000000 0.7611320000
1.0000000000 1.0000000000 0.8164080000
1.0000000000 1.0000000000 0.8716840000
0.0000000000 0.0000000000 0.0655440000
0.0000000000 0.0000000000 0.1208200000
0.1760960000 0.0000000000 0.1760960000
0.3713720000 0.0000000000 0.2313720000
0.5666480000 0.0066480000 0.2866480000
0.0000000000 0.1114960000 0.2514960000
0.1667720000 0.1667720000 0.3067720000
0.3620480000 0.2220480000 0.3620480000
0.5573240000 0.2773240000 0.4173240000
0.7526000000 0.3326000000 0.4726000000
0.1574480000 0.4374480000 0.4374480000
0.3527240000 0.4927240000 0.4927240000
0.5480000000 0.5480000000 0.5480000000
0.7432760000 0.6032760000 0.6032760000
0.9385520000 0.6585520000 0.6585520000
0.3434000000 0.7634000000 0.6234000000
0.5386760000 0.8186760000 0.6786760000
0.7339520000 0.8739520000 0.7339520000
0.9292280000 0.9292280000 0.7892280000
1.0000000000 0.9845040000 0.8445040000
0.5293520000 1.0000000000 0.8093520000
0.7246280000 1.0000000000 0.8646280000
0.9199040000 1.0000000000 0.9199040000
1.0000000000 1.0000000000 0.9751800000
1.0000000000 1.0000000000 1.0000000000
0.0000000000 0.0000000000 0.2243160000
0.0000000000 0.0000000000 0.2795920000
0.1948680000 0.0000000000 0.3348680000
0.3901440000 0.0000000000 0.3901440000
0.5854200000 0.0254200000 0.4454200000
0.0000000000 0.1302680000 0.4102680000
0.1855440000 0.1855440000 0.4655440000
0.3808200000 0.2408200000 0.5208200000
0.5760960000 0.2960960000 0.5760960000
0.7713720000 0.3513720000 0.6313720000
0.1762200000 0.4562200000 0.5962200000
0.3714960000 0.5114960000 0.6514960000
0.5667720000 0.5667720000 0.7067720000
0.7620480000 0.6220480000 0.7620480000
0.9573240000 0.6773240000 0.8173240000
0.3621720000 0.7821720000 0.7821720000
0.5574480000 0.8374480000 0.8374480000
0.7527240000 0.8927240000 0.8927240000
0.9480000000 0.9480000000 0.9480000000
1.0000000000 1.0000000000 1.0000000000
0.5481240000 1.0000000000 0.9681240000
0.7434000000 1.0000000000 1.0000000000
0.9386760000 1.0000000000 1.0000000000
1.0000000000 1.0000000000 1.0000000000
1.0000000000 1.0000000000 1.0000000000
0.0000000000 0.0000000000 0.3830880000
0.0183640000 0.0000000000 0.4383640000
0.2136400000 0.0000000000 0.4936400000
0.4089160000 0.0000000000 0.5489160000
0.6041920000 0.0441920000 0.6041920000
0.0090400000 0.1490400000 0.5690400000
0.2043160000 0.2043160000 0.6243160000
0.3995920000 0.2595920000 0.6795920000
0.5948680000 0.3148680000 0.7348680000
0.7901440000 0.3701440000 0.7901440000
0.1949920000 0.4749920000 0.7549920000
0.3902680000 0.5302680000 0.8102680000
0.5855440000 0.5855440000 0.8655440000
0.7808200000 0.6408200000 0.9208200000
0.9760960000 0.6960960000 0.9760960000
0.3809440000 0.8009440000 0.9409440000
0.5762200000 0.8562200000 0.9962200000
0.7714960000 0.9114960000 1.0000000000
0.9667720000 0.9667720000 1.0000000000
1.0000000000 1.0000000000 1.0000000000
0.5668960000 1.0000000000 1.0000000000
0.7621720000 1.0000000000 1.0000000000
0.9574480000 1.0000000000 1.0000000000
1.0000000000 1.0000000000 1.0000000000
1.0000000000 1.0000000000 1.0000000000
