public/sample-luts/warm-grade-17.cube
TITLE "Warm Grade"
# Warm cinematic look
LUT_3D_SIZE 5
DOMAIN_MIN 0.0 0.0 0.0
DOMAIN_MAX 1.0 1.0 1.0
0.0100000000 0.0050000000 0.0000000000
0.1450000000 0.0050000000 0.0000000000
0.5500000000 0.0050000000 0.0000000000
0.9550000000 0.0050000000 0.0000000000
1.0000000000 0.0050000000 0.0000000000
0.0100000000 0.1325000000 0.0000000000
0.1450000000 0.1325000000 0.0000000000
0.5500000000 0.1325000000 0.0000000000
0.9550000000 0.1325000000 0.0000000000
1.0000000000 0.1325000000 0.0000000000
0.0100000000 0.5150000000 0.0000000000
0.1450000000 0.5150000000 0.0000000000
0.5500000000 0.5150000000 0.0000000000
0.9550000000 0.5150000000 0.0000000000
1.0000000000 0.5150000000 0.0000000000
0.0100000000 0.8975000000 0.0000000000
0.1450000000 0.8975000000 0.0000000000
0.5500000000 0.8975000000 0.0000000000
0.9550000000 0.8975000000 0.0000000000
1.0000000000 0.8975000000 0.0000000000
0.0100000000 1.0000000000 0.0000000000
0.1450000000 1.0000000000 0.0000000000
0.5500000000 1.0000000000 0.0000000000
0.9550000000 1.0000000000 0.0000000000
1.0000000000 1.0000000000 0.0000000000
0.0100000000 0.0050000000 0.1000000000
0.1450000000 0.0050000000 0.1000000000
0.5500000000 0.0050000000 0.1000000000
0.9550000000 0.0050000000 0.1000000000
1.0000000000 0.0050000000 0.1000000000
0.0100000000 0.1325000000 0.1000000000
0.1450000000 0.1325000000 0.1000000000
0.5500000000 0.1325000000 0.1000000000
0.9550000000 0.1325000000 0.1000000000
1.0000000000 0.1325000000 0.1000000000
0.0100000000 0.5150000000 0.1000000000
0.1450000000 0.5150000000 0.1000000000
0.5500000000 0.5150000000 0.1000000000
0.9550000000 0.5150000000 0.1000000000
1.0000000000 0.5150000000 0.1000000000
0.0100000000 0.8975000000 0.1000000000
0.1450000000 0.8975000000 0.1000000000
0.5500000000 0.8975000000 0.1000000000
0.9550000000 0.8975000000 0.1000000000
1.0000000000 0.8975000000 0.1000000000
0.0100000000 1.0000000000 0.1000000000
0.1450000000 1.0000000000 0.1000000000
0.5500000000 1.0000000000 0.1000000000
0.9550000000 1.0000000000 0.1000000000
1.0000000000 1.0000000000 0.1000000000
0.0100000000 0.0050000000 0.4300000000
0.1450000000 0.0050000000 0.4300000000
0.5500000000 0.0050000000 0.4300000000
0.9550000000 0.0050000000 0.4300000000
1.0000000000 0.0050000000 0.4300000000
0.0100000000 0.1325000000 0.4300000000
0.1450000000 0.1325000000 0.4300000000
0.5500000000 0.1325000000 0.4300000000
0.9550000000 0.1325000000 0.4300000000
1.0000000000 0.1325000000 0.4300000000
0.0100000000 0.5150000000 0.4300000000
0.1450000000 0.5150000000 0.4300000000
0.5500000000 0.5150000000 0.4300000000
0.9550000000 0.5150000000 0.4300000000
1.0000000000 0.5150000000 0.4300000000
0.0100000000 0.8975000000 0.4300000000
0.1450000000 0.8975000000 0.4300000000
0.5500000000 0.8975000000 0.4300000000
0.9550000000 0.8975000000 0.4300000000
1.0000000000 0.8975000000 0.4300000000
0.0100000000 1.0000000000 0.4300000000
0.1450000000 1.0000000000 0.4300000000
0.5500000000 1.0000000000 0.4300000000
0.9550000000 1.0000000000 0.4300000000
1.0000000000 1.0000000000 0.4300000000
0.0100000000 0.0050000000 0.7600000000
0.1450000000 0.0050000000 0.7600000000
0.5500000000 0.0050000000 0.7600000000
0.9550000000 0.0050000000 0.7600000000
1.0000000000 0.0050000000 0.7600000000
0.0100000000 0.1325000000 0.7600000000
0.1450000000 0.1325000000 0.7600000000
0.5500000000 0.1325000000 0.7600000000
0.9550000000 0.1325000000 0.7600000000
1.0000000000 0.1325000000 0.7600000000
0.0100000000 0.5150000000 0.7600000000
0.1450000000 0.5150000000 0.7600000000
0.5500000000 0.5150000000 0.7600000000
0.9550000000 0.5150000000 0.7600000000
1.0000000000 0.5150000000 0.7600000000
0.0100000000 0.8975000000 0.7600000000
0.1450000000 0.8975000000 0.7600000000
0.5500000000 0.8975000000 0.7600000000
0.9550000000 0.8975000000 0.7600000000
1.0000000000 0.8975000000 0.7600000000
0.0100000000 1.0000000000 0.7600000000
0.1450000000 1.0000000000 0.7600000000
0.5500000000 1.0000000000 0.7600000000
0.9550000000 1.0000000000 0.7600000000
1.0000000000 1.0000000000 0.7600000000
0.0100000000 0.0050000000 0.8700000000
0.1450000000 0.0050000000 0.8700000000
0.5500000000 0.0050000000 0.8700000000
0.9550000000 0.0050000000 0.8700000000
1.0000000000 0.0050000000 0.8700000000
0.0100000000 0.1325000000 0.8700000000
0.1450000000 0.1325000000 0.8700000000
0.5500000000 0.1325000000 0.8700000000
0.9550000000 0.1325000000 0.8700000000
1.0000000000 0.1325000000 0.8700000000
0.0100000000 0.5150000000 0.8700000000
0.1450000000 0.5150000000 0.8700000000
0.5500000000 0.5150000000 0.8700000000
0.9550000000 0.5150000000 0.8700000000
1.0000000000 0.5150000000 0.8700000000
0.0100000000 0.8975000000 0.8700000000
0.1450000000 0.8975000000 0.8700000000
0.5500000000 0.8975000000 0.8700000000
0.9550000000 0.8975000000 0.8700000000
1.0000000000 0.8975000000 0.8700000000
0.0100000000 1.0000000000 0.8700000000
0.1450000000 1.0000000000 0.8700000000
0.5500000000 1.0000000000 0.8700000000
0.9550000000 1.0000000000 0.8700000000
1.0000000000 1.0000000000 0.8700000000
