public/sample-luts/warm-grade-17.cube
TITLE "Warm Grade"
# Warm cinematic look
LUT_3D_SIZE 17
DOMAIN_MIN 0.0 0.0 0.0
DOMAIN_MAX 1.0 1.0 1.0
0.0100000000 0.0050000000 0.0000000000
0.0184375000 0.0050000000 0.0000000000
0.0437500000 0.0050000000 0.0000000000
0.0859375000 0.0050000000 0.0000000000
0.1450000000 0.0050000000 0.0000000000
0.2209375000 0.0050000000 0.0000000000
0.3137500000 0.0050000000 0.0000000000
0.4234375000 0.0050000000 0.0000000000
0.5500000000 0.0050000000 0.0000000000
0.6765625000 0.0050000000 0.0000000000
0.7862500000 0.0050000000 0.0000000000
0.8790625000 0.0050000000 0.0000000000
0.9550000000 0.0050000000 0.0000000000
1.0000000000 0.0050000000 0.0000000000
1.0000000000 0.0050000000 0.0000000000
1.0000000000 0.0050000000 0.0000000000
1.0000000000 0.0050000000 0.0000000000
0.0100000000 0.0129687500 0.0000000000
0.0184375000 0.0129687500 0.0000000000
0.0437500000 0.0129687500 0.0000000000
0.0859375000 0.0129687500 0.0000000000
0.1450000000 0.0129687500 0.0000000000
0.2209375000 0.0129687500 0.0000000000
0.3137500000 0.0129687500 0.0000000000
0.4234375000 0.0129687500 0.0000000000
0.5500000000 0.0129687500 0.0000000000
0.6765625000 0.0129687500 0.0000000000
0.7862500000 0.0129687500 0.0000000000
0.8790625000 0.0129687500 0.0000000000
0.9550000000 0.0129687500 0.0000000000
1.0000000000 0.0129687500 0.0000000000
1.0000000000 0.0129687500 0.0000000000
1.0000000000 0.0129687500 0.0000000000
1.0000000000 0.0129687500 0.0000000000
0.0100000000 0.0368750000 0.0000000000
0.0184375000 0.0368750000 0.0000000000
0.0437500000 0.0368750000 0.0000000000
0.0859375000 0.0368750000 0.0000000000
0.1450000000 0.0368750000 0.0000000000
0.2209375000 0.0368750000 0.0000000000
0.3137500000 0.0368750000 0.0000000000
0.4234375000 0.0368750000 0.0000000000
0.5500000000 0.0368750000 0.0000000000
0.6765625000 0.0368750000 0.0000000000
0.7862500000 0.0368750000 0.0000000000
0.8790625000 0.0368750000 0.0000000000
0.9550000000 0.0368750000 0.0000000000
1.0000000000 0.0368750000 0.0000000000
1.0000000000 0.0368750000 0.0000000000
1.0000000000 0.0368750000 0.0000000000
1.0000000000 0.0368750000 0.0000000000
0.0100000000 0.0767187500 0.0000000000
0.0184375000 0.0767187500 0.0000000000
0.0437500000 0.0767187500 0.0000000000
0.0859375000 0.0767187500 0.0000000000
0.1450000000 0.0767187500 0.0000000000
0.2209375000 0.0767187500 0.0000000000
0.3137500000 0.0767187500 0.0000000000
0.4234375000 0.0767187500 0.0000000000
0.5500000000 0.0767187500 0.0000000000
0.6765625000 0.0767187500 0.0000000000
0.7862500000 0.0767187500 0.0000000000
0.8790625000 0.0767187500 0.0000000000
0.9550000000 0.0767187500 0.0000000000
1.0000000000 0.0767187500 0.0000000000
1.0000000000 0.0767187500 0.0000000000
1.0000000000 0.0767187500 0.0000000000
1.0000000000 0.0767187500 0.0000000000
0.0100000000 0.1325000000 0.0000000000
0.0184375000 0.1325000000 0.0000000000
0.0437500000 0.1325000000 0.0000000000
0.0859375000 0.1325000000 0.0000000000
0.1450000000 0.1325000000 0.0000000000
0.2209375000 0.1325000000 0.0000000000
0.3137500000 0.1325000000 0.0000000000
0.4234375000 0.1325000000 0.0000000000
0.5500000000 0.1325000000 0.0000000000
0.6765625000 0.1325000000 0.0000000000
0.7862500000 0.1325000000 0.0000000000
0.8790625000 0.1325000000 0.0000000000
0.9550000000 0.1325000000 0.0000000000
1.0000000000 0.1325000000 0.0000000000
1.0000000000 0.1325000000 0.0000000000
1.0000000000 0.1325000000 0.0000000000
1.0000000000 0.1325000000 0.0000000000
0.0100000000 0.2042187500 0.0000000000
0.0184375000 0.2042187500 0.0000000000
0.0437500000 0.2042187500 0.0000000000
0.0859375000 0.2042187500 0.0000000000
0.1450000000 0.2042187500 0.0000000000
0.2209375000 0.2042187500 0.0000000000
0.3137500000 0.2042187500 0.0000000000
0.4234375000 0.2042187500 0.0000000000
0.5500000000 0.2042187500 0.0000000000
0.6765625000 0.2042187500 0.0000000000
0.7862500000 0.2042187500 0.0000000000
0.8790625000 0.2042187500 0.0000000000
0.9550000000 0.2042187500 0.0000000000
1.0000000000 0.2042187500 0.0000000000
1.0000000000 0.2042187500 0.0000000000
1.0000000000 0.2042187500 0.0000000000
1.0000000000 0.2042187500 0.0000000000
0.0100000000 0.2918750000 0.0000000000
0.0184375000 0.2918750000 0.0000000000
0.0437500000 0.2918750000 0.0000000000
0.0859375000 0.2918750000 0.0000000000
0.1450000000 0.2918750000 0.0000000000
0.2209375000 0.2918750000 0.0000000000
0.3137500000 0.2918750000 0.0000000000
0.4234375000 0.2918750000 0.0000000000
0.5500000000 0.2918750000 0.0000000000
0.6765625000 0.2918750000 0.0000000000
0.7862500000 0.2918750000 0.0000000000
0.8790625000 0.2918750000 0.0000000000
0.9550000000 0.2918750000 0.0000000000
1.0000000000 0.2918750000 0.0000000000
1.0000000000 0.2918750000 0.0000000000
1.0000000000 0.2918750000 0.0000000000
1.0000000000 0.2918750000 0.0000000000
0.0100000000 0.3954687500 0.0000000000
0.0184375000 0.3954687500 0.0000000000
0.0437500000 0.3954687500 0.0000000000
0.0859375000 0.3954687500 0.0000000000
0.1450000000 0.3954687500 0.0000000000
0.2209375000 0.3954687500 0.0000000000
0.3137500000 0.3954687500 0.0000000000
0.4234375000 0.3954687500 0.0000000000
0.5500000000 0.3954687500 0.0000000000
0.6765625000 0.3954687500 0.0000000000
0.7862500000 0.3954687500 0.0000000000
0.8790625000 0.3954687500 0.0000000000
0.9550000000 0.3954687500 0.0000000000
1.0000000000 0.3954687500 0.0000000000
1.0000000000 0.3954687500 0.0000000000
1.0000000000 0.3954687500 0.0000000000
1.0000000000 0.3954687500 0.0000000000
0.0100000000 0.5150000000 0.0000000000
0.0184375000 0.5150000000 0.0000000000
0.0437500000 0.5150000000 0.0000000000
0.0859375000 0.5150000000 0.0000000000
0.1450000000 0.5150000000 0.0000000000
0.2209375000 0.5150000000 0.0000000000
0.3137500000 0.5150000000 0.0000000000
0.4234375000 0.5150000000 0.0000000000
0.5500000000 0.5150000000 0.0000000000
0.6765625000 0.5150000000 0.0000000000
0.7862500000 0.5150000000 0.0000000000
0.8790625000 0.5150000000 0.0000000000
0.9550000000 0.5150000000 0.0000000000
1.0000000000 0.5150000000 0.0000000000
1.0000000000 0.5150000000 0.0000000000
1.0000000000 0.5150000000 0.0000000000
1.0000000000 0.5150000000 0.0000000000
0.0100000000 0.6345312500 0.0000000000
0.0184375000 0.6345312500 0.0000000000
0.0437500000 0.6345312500 0.0000000000
0.0859375000 0.6345312500 0.0000000000
0.1450000000 0.6345312500 0.0000000000
0.2209375000 0.6345312500 0.0000000000
0.3137500000 0.6345312500 0.0000000000
0.4234375000 0.6345312500 0.0000000000
0.5500000000 0.6345312500 0.0000000000
0.6765625000 0.6345312500 0.0000000000
0.7862500000 0.6345312500 0.0000000000
0.8790625000 0.6345312500 0.0000000000
0.9550000000 0.6345312500 0.0000000000
1.0000000000 0.6345312500 0.0000000000
1.0000000000 0.6345312500 0.0000000000
1.0000000000 0.6345312500 0.0000000000
1.0000000000 0.6345312500 0.0000000000
0.0100000000 0.7381250000 0.0000000000
0.0184375000 0.7381250000 0.0000000000
0.0437500000 0.7381250000 0.0000000000
0.0859375000 0.7381250000 0.0000000000
0.1450000000 0.7381250000 0.0000000000
0.2209375000 0.7381250000 0.0000000000
0.3137500000 0.7381250000 0.0000000000
0.4234375000 0.7381250000 0.0000000000
0.5500000000 0.7381250000 0.0000000000
0.6765625000 0.7381250000 0.0000000000
0.7862500000 0.7381250000 0.0000000000
0.8790625000 0.7381250000 0.0000000000
0.9550000000 0.7381250000 0.0000000000
1.0000000000 0.7381250000 0.0000000000
1.0000000000 0.7381250000 0.0000000000
1.0000000000 0.7381250000 0.0000000000
1.0000000000 0.7381250000 0.0000000000
0.0100000000 0.8257812500 0.0000000000
0.0184375000 0.8257812500 0.0000000000
0.0437500000 0.8257812500 0.0000000000
0.0859375000 0.8257812500 0.0000000000
0.1450000000 0.8257812500 0.0000000000
0.2209375000 0.8257812500 0.0000000000
0.3137500000 0.8257812500 0.0000000000
0.4234375000 0.8257812500 0.0000000000
0.5500000000 0.8257812500 0.0000000000
0.6765625000 0.8257812500 0.0000000000
0.7862500000 0.8257812500 0.0000000000
0.8790625000 0.8257812500 0.0000000000
0.9550000000 0.8257812500 0.0000000000
1.0000000000 0.8257812500 0.0000000000
1.0000000000 0.8257812500 0.0000000000
1.0000000000 0.8257812500 0.0000000000
1.0000000000 0.8257812500 0.0000000000
0.0100000000 0.8975000000 0.0000000000
0.0184375000 0.8975000000 0.0000000000
0.0437500000 0.8975000000 0.0000000000
0.0859375000 0.8975000000 0.0000000000
0.1450000000 0.8975000000 0.0000000000
0.2209375000 0.8975000000 0.0000000000
0.3137500000 0.8975000000 0.0000000000
0.4234375000 0.8975000000 0.0000000000
0.5500000000 0.8975000000 0.0000000000
0.6765625000 0.8975000000 0.0000000000
0.7862500000 0.8975000000 0.0000000000
0.8790625000 0.8975000000 0.0000000000
0.9550000000 0.8975000000 0.0000000000
1.0000000000 0.8975000000 0.0000000000
1.0000000000 0.8975000000 0.0000000000
1.0000000000 0.8975000000 0.0000000000
1.0000000000 0.8975000000 0.0000000000
0.0100000000 0.9532812500 0.0000000000
0.0184375000 0.9532812500 0.0000000000
0.0437500000 0.9532812500 0.0000000000
0.0859375000 0.9532812500 0.0000000000
0.1450000000 0.9532812500 0.0000000000
0.2209375000 0.9532812500 0.0000000000
0.3137500000 0.9532812500 0.0000000000
0.4234375000 0.9532812500 0.0000000000
0.5500000000 0.9532812500 0.0000000000
0.6765625000 0.9532812500 0.0000000000
0.7862500000 0.9532812500 0.0000000000
0.8790625000 0.9532812500 0.0000000000
0.9550000000 0.9532812500 0.0000000000
1.0000000000 0.9532812500 0.0000000000
1.0000000000 0.9532812500 0.0000000000
1.0000000000 0.9532812500 0.0000000000
1.0000000000 0.9532812500 0.0000000000
0.0100000000 0.9931250000 0.0000000000
0.0184375000 0.9931250000 0.0000000000
0.0437500000 0.9931250000 0.0000000000
0.0859375000 0.9931250000 0.0000000000
0.1450000000 0.9931250000 0.0000000000
0.2209375000 0.9931250000 0.0000000000
0.3137500000 0.9931250000 0.0000000000
0.4234375000 0.9931250000 0.0000000000
0.5500000000 0.9931250000 0.0000000000
0.6765625000 0.9931250000 0.0000000000
0.7862500000 0.9931250000 0.0000000000
0.8790625000 0.9931250000 0.0000000000
0.9550000000 0.9931250000 0.0000000000
1.0000000000 0.9931250000 0.0000000000
1.0000000000 0.9931250000 0.0000000000
1.0000000000 0.9931250000 0.0000000000
1.0000000000 0.9931250000 0.0000000000
0.0100000000 1.0000000000 0.0000000000
0.0184375000 1.0000000000 0.0000000000
0.0437500000 1.0000000000 0.0000000000
0.0859375000 1.0000000000 0.0000000000
0.1450000000 1.0000000000 0.0000000000
0.2209375000 1.0000000000 0.0000000000
0.3137500000 1.0000000000 0.0000000000
0.4234375000 1.0000000000 0.0000000000
0.5500000000 1.0000000000 0.0000000000
0.6765625000 1.0000000000 0.0000000000
0.7862500000 1.0000000000 0.0000000000
0.8790625000 1.0000000000 0.0000000000
0.9550000000 1.0000000000 0.0000000000
1.0000000000 1.0000000000 0.0000000000
1.0000000000 1.0000000000 0.0000000000
1.0000000000 1.0000000000 0.0000000000
1.0000000000 1.0000000000 0.0000000000
0.0100000000 1.0000000000 0.0000000000
0.0184375000 1.0000000000 0.0000000000
0.0437500000 1.0000000000 0.0000000000
0.0859375000 1.0000000000 0.0000000000
0.1450000000 1.0000000000 0.0000000000
0.2209375000 1.0000000000 0.0000000000
0.3137500000 1.0000000000 0.0000000000
0.4234375000 1.0000000000 0.0000000000
0.5500000000 1.0000000000 0.0000000000
0.6765625000 1.0000000000 0.0000000000
0.7862500000 1.0000000000 0.0000000000
0.8790625000 1.0000000000 0.0000000000
0.9550000000 1.0000000000 0.0000000000
1.0000000000 1.0000000000 0.0000000000
1.0000000000 1.0000000000 0.0000000000
1.0000000000 1.0000000000 0.0000000000
1.0000000000 1.0000000000 0.0000000000
0.0100000000 0.0050000000 0.0000000000
0.0184375000 0.0050000000 0.0000000000
0.0437500000 0.0050000000 0.0000000000
0.0859375000 0.0050000000 0.0000000000
0.1450000000 0.0050000000 0.0000000000
0.2209375000 0.0050000000 0.0000000000
0.3137500000 0.0050000000 0.0000000000
0.4234375000 0.0050000000 0.0000000000
0.5500000000 0.0050000000 0.0000000000
0.6765625000 0.0050000000 0.0000000000
0.7862500000 0.0050000000 0.0000000000
0.8790625000 0.0050000000 0.0000000000
0.9550000000 0.0050000000 0.0000000000
1.0000000000 0.0050000000 0.0000000000
1.0000000000 0.0050000000 0.0000000000
1.0000000000 0.0050000000 0.0000000000
1.0000000000 0.0050000000 0.0000000000
0.0100000000 0.0129687500 0.0000000000
0.0184375000 0.0129687500 0.0000000000
0.0437500000 0.0129687500 0.0000000000
0.0859375000 0.0129687500 0.0000000000
0.1450000000 0.0129687500 0.0000000000
0.2209375000 0.0129687500 0.0000000000
0.3137500000 0.0129687500 0.0000000000
0.4234375000 0.0129687500 0.0000000000
0.5500000000 0.0129687500 0.0000000000
0.6765625000 0.0129687500 0.0000000000
0.7862500000 0.0129687500 0.0000000000
0.8790625000 0.0129687500 0.0000000000
0.9550000000 0.0129687500 0.0000000000
1.0000000000 0.0129687500 0.0000000000
1.0000000000 0.0129687500 0.0000000000
1.0000000000 0.0129687500 0.0000000000
1.0000000000 0.0129687500 0.0000000000
0.0100000000 0.0368750000 0.0000000000
0.0184375000 0.0368750000 0.0000000000
0.0437500000 0.0368750000 0.0000000000
0.0859375000 0.0368750000 0.0000000000
0.1450000000 0.0368750000 0.0000000000
0.2209375000 0.0368750000 0.0000000000
0.3137500000 0.0368750000 0.0000000000
0.4234375000 0.0368750000 0.0000000000
0.5500000000 0.0368750000 0.0000000000
0.6765625000 0.0368750000 0.0000000000
0.7862500000 0.0368750000 0.0000000000
0.8790625000 0.0368750000 0.0000000000
0.9550000000 0.0368750000 0.0000000000
1.0000000000 0.0368750000 0.0000000000
1.0000000000 0.0368750000 0.0000000000
1.0000000000 0.0368750000 0.0000000000
1.0000000000 0.0368750000 0.0000000000
0.0100000000 0.0767187500 0.0000000000
0.0184375000 0.0767187500 0.0000000000
0.0437500000 0.0767187500 0.0000000000
0.0859375000 0.0767187500 0.0000000000
0.1450000000 0.0767187500 0.0000000000
0.2209375000 0.0767187500 0.0000000000
0.3137500000 0.0767187500 0.0000000000
0.4234375000 0.0767187500 0.0000000000
0.5500000000 0.0767187500 0.0000000000
0.6765625000 0.0767187500 0.0000000000
0.7862500000 0.0767187500 0.0000000000
0.8790625000 0.0767187500 0.0000000000
0.9550000000 0.0767187500 0.0000000000
1.0000000000 0.0767187500 0.0000000000
1.0000000000 0.0767187500 0.0000000000
1.0000000000 0.0767187500 0.0000000000
1.0000000000 0.0767187500 0.0000000000
0.0100000000 0.1325000000 0.0000000000
0.0184375000 0.1325000000 0.0000000000
0.0437500000 0.1325000000 0.0000000000
0.0859375000 0.1325000000 0.0000000000
0.1450000000 0.1325000000 0.0000000000
0.2209375000 0.1325000000 0.0000000000
0.3137500000 0.1325000000 0.0000000000
0.4234375000 0.1325000000 0.0000000000
0.5500000000 0.1325000000 0.0000000000
0.6765625000 0.1325000000 0.0000000000
0.7862500000 0.1325000000 0.0000000000
0.8790625000 0.1325000000 0.0000000000
0.9550000000 0.1325000000 0.0000000000
1.0000000000 0.1325000000 0.0000000000
1.0000000000 0.1325000000 0.0000000000
1.0000000000 0.1325000000 0.0000000000
1.0000000000 0.1325000000 0.0000000000
0.0100000000 0.2042187500 0.0000000000
0.0184375000 0.2042187500 0.0000000000
0.0437500000 0.2042187500 0.0000000000
0.0859375000 0.2042187500 0.0000000000
0.1450000000 0.2042187500 0.0000000000
0.2209375000 0.2042187500 0.0000000000
0.3137500000 0.2042187500 0.0000000000
0.4234375000 0.2042187500 0.0000000000
0.5500000000 0.2042187500 0.0000000000
0.6765625000 0.2042187500 0.0000000000
0.7862500000 0.2042187500 0.0000000000
0.8790625000 0.2042187500 0.0000000000
0.9550000000 0.2042187500 0.0000000000
1.0000000000 0.2042187500 0.0000000000
1.0000000000 0.2042187500 0.0000000000
1.0000000000 0.2042187500 0.0000000000
1.0000000000 0.2042187500 0.0000000000
0.0100000000 0.2918750000 0.0000000000
0.0184375000 0.2918750000 0.0000000000
0.0437500000 0.2918750000 0.0000000000
0.0859375000 0.2918750000 0.0000000000
0.1450000000 0.2918750000 0.0000000000
0.2209375000 0.2918750000 0.0000000000
0.3137500000 0.2918750000 0.0000000000
0.4234375000 0.2918750000 0.0000000000
0.5500000000 0.2918750000 0.0000000000
0.6765625000 0.2918750000 0.0000000000
0.7862500000 0.2918750000 0.0000000000
0.8790625000 0.2918750000 0.0000000000
0.9550000000 0.2918750000 0.0000000000
1.0000000000 0.2918750000 0.0000000000
1.0000000000 0.2918750000 0.0000000000
1.0000000000 0.2918750000 0.0000000000
1.0000000000 0.2918750000 0.0000000000
0.0100000000 0.3954687500 0.0000000000
0.0184375000 0.3954687500 0.0000000000
0.0437500000 0.3954687500 0.0000000000
0.0859375000 0.3954687500 0.0000000000
0.1450000000 0.3954687500 0.0000000000
0.2209375000 0.3954687500 0.0000000000
0.3137500000 0.3954687500 0.0000000000
0.4234375000 0.3954687500 0.0000000000
0.5500000000 0.3954687500 0.0000000000
0.6765625000 0.3954687500 0.0000000000
0.7862500000 0.3954687500 0.0000000000
0.8790625000 0.3954687500 0.0000000000
0.9550000000 0.3954687500 0.0000000000
1.0000000000 0.3954687500 0.0000000000
1.0000000000 0.3954687500 0.0000000000
1.0000000000 0.3954687500 0.0000000000
1.0000000000 0.3954687500 0.0000000000
0.0100000000 0.5150000000 0.0000000000
0.0184375000 0.5150000000 0.0000000000
0.0437500000 0.5150000000 0.0000000000
0.0859375000 0.5150000000 0.0000000000
0.1450000000 0.5150000000 0.0000000000
0.2209375000 0.5150000000 0.0000000000
0.3137500000 0.5150000000 0.0000000000
0.4234375000 0.5150000000 0.0000000000
0.5500000000 0.5150000000 0.0000000000
0.6765625000 0.5150000000 0.0000000000
0.7862500000 0.5150000000 0.0000000000
0.8790625000 0.5150000000 0.0000000000
0.9550000000 0.5150000000 0.0000000000
1.0000000000 0.5150000000 0.0000000000
1.0000000000 0.5150000000 0.0000000000
1.0000000000 0.5150000000 0.0000000000
1.0000000000 0.5150000000 0.0000000000
0.0100000000 0.6345312500 0.0000000000
0.0184375000 0.6345312500 0.0000000000
0.0437500000 0.6345312500 0.0000000000
0.0859375000 0.6345312500 0.0000000000
0.1450000000 0.6345312500 0.0000000000
0.2209375000 0.6345312500 0.0000000000
0.3137500000 0.6345312500 0.0000000000
0.4234375000 0.6345312500 0.0000000000
0.5500000000 0.6345312500 0.0000000000
0.6765625000 0.6345312500 0.0000000000
0.7862500000 0.6345312500 0.0000000000
0.8790625000 0.6345312500 0.0000000000
0.9550000000 0.6345312500 0.0000000000
1.0000000000 0.6345312500 0.0000000000
1.0000000000 0.6345312500 0.0000000000
1.0000000000 0.6345312500 0.0000000000
1.0000000000 0.6345312500 0.0000000000
0.0100000000 0.7381250000 0.0000000000
0.0184375000 0.7381250000 0.0000000000
0.0437500000 0.7381250000 0.0000000000
0.0859375000 0.7381250000 0.0000000000
0.1450000000 0.7381250000 0.0000000000
0.2209375000 0.7381250000 0.0000000000
0.3137500000 0.7381250000 0.0000000000
0.4234375000 0.7381250000 0.0000000000
0.5500000000 0.7381250000 0.0000000000
0.6765625000 0.7381250000 0.0000000000
0.7862500000 0.7381250000 0.0000000000
0.8790625000 0.7381250000 0.0000000000
0.9550000000 0.7381250000 0.0000000000
1.0000000000 0.7381250000 0.0000000000
1.0000000000 0.7381250000 0.0000000000
1.0000000000 0.7381250000 0.0000000000
1.0000000000 0.7381250000 0.0000000000
0.0100000000 0.8257812500 0.0000000000
0.0184375000 0.8257812500 0.0000000000
0.0437500000 0.8257812500 0.0000000000
0.0859375000 0.8257812500 0.0000000000
0.1450000000 0.8257812500 0.0000000000
0.2209375000 0.8257812500 0.0000000000
0.3137500000 0.8257812500 0.0000000000
0.4234375000 0.8257812500 0.0000000000
0.5500000000 0.8257812500 0.0000000000
0.6765625000 0.8257812500 0.0000000000
0.7862500000 0.8257812500 0.0000000000
0.8790625000 0.8257812500 0.0000000000
0.9550000000 0.8257812500 0.0000000000
1.0000000000 0.8257812500 0.0000000000
1.0000000000 0.8257812500 0.0000000000
1.0000000000 0.8257812500 0.0000000000
1.0000000000 0.8257812500 0.0000000000
0.0100000000 0.8975000000 0.0000000000
0.0184375000 0.8975000000 0.0000000000
0.0437500000 0.8975000000 0.0000000000
0.0859375000 0.8975000000 0.0000000000
0.1450000000 0.8975000000 0.0000000000
0.2209375000 0.8975000000 0.0000000000
0.3137500000 0.8975000000 0.0000000000
0.4234375000 0.8975000000 0.0000000000
0.5500000000 0.8975000000 0.0000000000
0.6765625000 0.8975000000 0.0000000000
0.7862500000 0.8975000000 0.0000000000
0.8790625000 0.8975000000 0.0000000000
0.9550000000 0.8975000000 0.0000000000
1.0000000000 0.8975000000 0.0000000000
1.0000000000 0.8975000000 0.0000000000
1.0000000000 0.8975000000 0.0000000000
1.0000000000 0.8975000000 0.0000000000
0.0100000000 0.9532812500 0.0000000000
0.0184375000 0.9532812500 0.0000000000
0.0437500000 0.9532812500 0.0000000000
0.0859375000 0.9532812500 0.0000000000
0.1450000000 0.9532812500 0.0000000000
0.2209375000 0.9532812500 0.0000000000
0.3137500000 0.9532812500 0.0000000000
0.4234375000 0.9532812500 0.0000000000
0.5500000000 0.9532812500 0.0000000000
0.6765625000 0.9532812500 0.0000000000
0.7862500000 0.9532812500 0.0000000000
0.8790625000 0.9532812500 0.0000000000
0.9550000000 0.9532812500 0.0000000000
1.0000000000 0.9532812500 0.0000000000
1.0000000000 0.9532812500 0.0000000000
1.0000000000 0.9532812500 0.0000000000
1.0000000000 0.9532812500 0.0000000000
0.0100000000 0.9931250000 0.0000000000
0.0184375000 0.9931250000 0.0000000000
0.0437500000 0.9931250000 0.0000000000
0.0859375000 0.9931250000 0.0000000000
0.1450000000 0.9931250000 0.0000000000
0.2209375000 0.9931250000 0.0000000000
0.3137500000 0.9931250000 0.0000000000
0.4234375000 0.9931250000 0.0000000000
0.5500000000 0.9931250000 0.0000000000
0.6765625000 0.9931250000 0.0000000000
0.7862500000 0.9931250000 0.0000000000
0.8790625000 0.9931250000 0.0000000000
0.9550000000 0.9931250000 0.0000000000
1.0000000000 0.9931250000 0.0000000000
1.0000000000 0.9931250000 0.0000000000
1.0000000000 0.9931250000 0.0000000000
1.0000000000 0.9931250000 0.0000000000
0.0100000000 1.0000000000 0.0000000000
0.0184375000 1.0000000000 0.0000000000
0.0437500000 1.0000000000 0.0000000000
0.0859375000 1.0000000000 0.0000000000
0.1450000000 1.0000000000 0.0000000000
0.2209375000 1.0000000000 0.0000000000
0.3137500000 1.0000000000 0.0000000000
0.4234375000 1.0000000000 0.0000000000
0.5500000000 1.0000000000 0.0000000000
0.6765625000 1.0000000000 0.0000000000
0.7862500000 1.0000000000 0.0000000000
0.8790625000 1.0000000000 0.0000000000
0.9550000000 1.0000000000 0.0000000000
1.0000000000 1.0000000000 0.0000000000
1.0000000000 1.0000000000 0.0000000000
1.0000000000 1.0000000000 0.0000000000
1.0000000000 1.0000000000 0.0000000000
0.0100000000 1.0000000000 0.0000000000
0.0184375000 1.0000000000 0.0000000000
0.0437500000 1.0000000000 0.0000000000
0.0859375000 1.0000000000 0.0000000000
0.1450000000 1.0000000000 0.0000000000
0.2209375000 1.0000000000 0.0000000000
0.3137500000 1.0000000000 0.0000000000
0.4234375000 1.0000000000 0.0000000000
0.5500000000 1.0000000000 0.0000000000
0.6765625000 1.0000000000 0.0000000000
0.7862500000 1.0000000000 0.0000000000
0.8790625000 1.0000000000 0.0000000000
0.9550000000 1.0000000000 0.0000000000
1.0000000000 1.0000000000 0.0000000000
1.0000000000 1.0000000000 0.0000000000
1.0000000000 1.0000000000 0.0000000000
1.0000000000 1.0000000000 0.0000000000
0.0100000000 0.0050000000 0.0175000000
0.0184375000 0.0050000000 0.0175000000
0.0437500000 0.0050000000 0.0175000000
0.0859375000 0.0050000000 0.0175000000
0.1450000000 0.0050000000 0.0175000000
0.2209375000 0.0050000000 0.0175000000
0.3137500000 0.0050000000 0.0175000000
0.4234375000 0.0050000000 0.0175000000
0.5500000000 0.0050000000 0.0175000000
0.6765625000 0.0050000000 0.0175000000
0.7862500000 0.0050000000 0.0175000000
0.8790625000 0.0050000000 0.0175000000
0.9550000000 0.0050000000 0.0175000000
1.0000000000 0.0050000000 0.0175000000
1.0000000000 0.0050000000 0.0175000000
1.0000000000 0.0050000000 0.0175000000
1.0000000000 0.0050000000 0.0175000000
0.0100000000 0.0129687500 0.0175000000
0.0184375000 0.0129687500 0.0175000000
0.0437500000 0.0129687500 0.0175000000
0.0859375000 0.0129687500 0.0175000000
0.1450000000 0.0129687500 0.0175000000
0.2209375000 0.0129687500 0.0175000000
0.3137500000 0.0129687500 0.0175000000
0.4234375000 0.0129687500 0.0175000000
0.5500000000 0.0129687500 0.0175000000
0.6765625000 0.0129687500 0.0175000000
0.7862500000 0.0129687500 0.0175000000
0.8790625000 0.0129687500 0.0175000000
0.9550000000 0.0129687500 0.0175000000
1.0000000000 0.0129687500 0.0175000000
1.0000000000 0.0129687500 0.0175000000
1.0000000000 0.0129687500 0.0175000000
1.0000000000 0.0129687500 0.0175000000
